alura/assets/api/cursos/okr-aplicado-product-marketing.svg

<svg width="306" height="306" viewBox="0 0 306 306" fill="none" xmlns="http://www.w3.org/2000/svg">
<g clip-path="url(#clip0_1304_2)">
<path d="M267 35.7H51.7V305.4H267V35.7Z" fill="white"/>
<path fill-rule="evenodd" clip-rule="evenodd" d="M268.3 0.199951H38.3C17.5 0.199951 0.699951 17 0.699951 37.8V267.8C0.699951 288.6 17.5 305.4 38.3 305.4H182.7C207.2 305.4 232.4 277.7 232.4 246C232.4 210.2 197.6 181.1 161.8 181.1H112.7V163.7L205.7 75.3999H66.1V48.1H251V67L247.8 70L160.6 153.9C214.2 153.9 259.7 198.1 259.7 246C259.7 269.6 251.2 289.3 238 305.4H268.3C289.1 305.4 305.9 288.6 305.9 267.8V37.8C305.9 17 289.1 0.199951 268.3 0.199951Z" fill="#221C28"/>
<path fill-rule="evenodd" clip-rule="evenodd" d="M268.3 0.199951H38.3C17.5 0.199951 0.699951 17 0.699951 37.8V267.8C0.699951 288.6 17.5 305.4 38.3 305.4H182.7C207.2 305.4 232.4 277.7 232.4 246C232.4 210.2 197.6 181.1 161.8 181.1H112.7V163.7L205.7 75.3999H66.1V48.1H251V67L247.8 70L160.6 153.9C214.2 153.9 259.7 198.1 259.7 246C259.7 269.6 251.2 289.3 238 305.4H268.3C289.1 305.4 305.9 288.6 305.9 267.8V37.8C305.9 17 289.1 0.199951 268.3 0.199951Z" fill="#672AD1"/>
</g>
<defs>
<clipPath id="clip0_1304_2">
<rect width="306" height="306" fill="white"/>
</clipPath>
</defs>
</svg>

<svg xmlns="http://www.w3.org/2000/svg" fill="none" viewBox="0 0 306 306"><g clip-path="url(#clip0_1304_2)"><path fill="#fff" d="M267 35.7H51.7v269.7H267V35.7z"/><path fill="#221C28" fill-rule="evenodd" d="M268.3.2h-230C17.5.2.7 17 .7 37.8v230c0 20.8 16.8 37.6 37.6 37.6h144.4c24.5 0 49.7-27.7 49.7-59.4 0-35.8-34.8-64.9-70.6-64.9h-49.1v-17.4l93-88.3H66.1V48.1H251V67l-3.2 3-87.2 83.9c53.6 0 99.1 44.2 99.1 92.1 0 23.6-8.5 43.3-21.7 59.4h30.3c20.8 0 37.6-16.8 37.6-37.6v-230C305.9 17 289.1.2 268.3.2z" clip-rule="evenodd"/><path fill="#672AD1" fill-rule="evenodd" d="M268.3.2h-230C17.5.2.7 17 .7 37.8v230c0 20.8 16.8 37.6 37.6 37.6h144.4c24.5 0 49.7-27.7 49.7-59.4 0-35.8-34.8-64.9-70.6-64.9h-49.1v-17.4l93-88.3H66.1V48.1H251V67l-3.2 3-87.2 83.9c53.6 0 99.1 44.2 99.1 92.1 0 23.6-8.5 43.3-21.7 59.4h30.3c20.8 0 37.6-16.8 37.6-37.6v-230C305.9 17 289.1.2 268.3.2z" clip-rule="evenodd"/></g><defs><clipPath id="clip0_1304_2"><path fill="#fff" d="M0 0h306v306H0z"/></clipPath></defs></svg>
